X:1
T:Title
%%score { 1 | ( 2 3 ) }
L:1/8
M:6/8
K:Ab
V:1 treble nm="Grand Piano"
V:2 bass 
V:3 bass 
V:1
 z3 z2[Q:1/4=84] E | e2 [Ed] [Ec][DB][CA] | [FA][EG][DF] [CE]2 [CE] | [CE]>[CE][CA] [Ec]2 [EA] | %4
[M:5/8] B-B- B3 |[M:1/8] E |[M:3/4] e2 [Ed][Ec] [DB][CA] | [FA][EG] [DF] [CE]2 [CE] | %8
 [DF][FB]- [FB]/[FA]/G FG |[M:5/8] [CA]-[CA]- [CA]3 |[M:1/8] z | %11
[M:3/4] [GB]2 [GB]/[GB]/[Ac]- [Ac]/[GB]/[Ac] | [Bd][GB] [Ge] c2 c | B>e G[GB] A[A,=DF] | %14
[M:5/8] [G,E]-[G,E]- [G,E]3 |[M:1/8] E |[M:3/4] e2 [Ed][Ec] [DB][CA] | [FA][EG] [DF] [CE]2 [CE] | %18
 [DF][FB]- [FB]/[FA]/G FG |[M:13/8] [CA]-[CA]- [CA]3 z z z z z z z2 |] %20
V:2
 z3 z2 E, | [A,,CE]2 [A,,B,] [A,,A,][A,,A,][A,,A,] | [D,A,]2 [D,A,] [A,,A,]2 [A,,A,] | %3
 [A,,A,]>[A,,A,][A,,A,] [A,,A,]2 [A,,A,] |[M:5/8] [E,G,E]-[E,G,E]- [E,G,E]3 |[M:1/8] E, | %6
[M:3/4] [A,,CE]2 [A,,B,][A,,A,] [A,,A,][A,,A,] | [D,A,]2 [D,A,] [A,,A,]2 [A,,A,] | %8
 [D,A,][D,D]- [D,D]/[D,D]/ [E,B,E]2 [E,B,D] |[M:5/8] [A,,A,]-[A,,A,]- [A,,A,]3 |[M:1/8] [E,E] | %11
[M:3/4] [E,E]2 [E,E]/[E,E]/ [E,E]2 [E,E] | [E,E]2 [E,E][K:treble] [A,EA]2 [A,EA] | %13
 [B,EG]>[B,G] .[B,E]2[K:bass] FB,, |[M:5/8] E,-E,- E,3 |[M:1/8] E, | %16
[M:3/4] [A,,CE]2 [A,,B,][A,,A,] [A,,A,][A,,A,] | [D,A,]2 [D,A,] [A,,A,]2 [A,,A,] | %18
 [D,A,][D,D]- [D,D]/[D,D]/ [E,B,E]2 [E,B,D] |[M:13/8] [A,,A,]-[A,,A,]- [A,,A,]3 z z z z z z z2 |] %20
V:3
 x6 | x6 | x6 | x6 |[M:5/8] x5 |[M:1/8] x |[M:3/4] x6 | x6 | x6 |[M:5/8] x5 |[M:1/8] x | %11
[M:3/4] x6 | x3[K:treble] x3 | z2 z[K:bass] .[B,,B,]3 |[M:5/8] x5 |[M:1/8] x |[M:3/4] x6 | x6 | %18
 x6 |[M:13/8] x13 |] %20

